public/assets/isolate2.svg

<svg width="125" height="79" viewBox="0 0 125 79" fill="none" xmlns="http://www.w3.org/2000/svg">
<path d="M5.68359 36.7075V77.9997H78.4591H118.714V36.3789" stroke="#062023" stroke-width="1.5" stroke-miterlimit="10" stroke-linecap="round" stroke-linejoin="round"/>
<path d="M78.46 25.2715V77.9999" stroke="#062023" stroke-width="1.5" stroke-miterlimit="10" stroke-linecap="round" stroke-linejoin="round"/>
<path d="M80.9346 24.0225L102.664 4.87988L117.613 34.3907L80.9346 24.0225Z" fill="url(#paint0_linear_57_324)"/>
<path d="M79.0263 23.9899L0.274414 36.9378V38.4002L79.4735 25.3537L105.66 2.18538L123.663 36.297L124.274 34.8675L105.898 0L79.0263 23.9899Z" fill="#FEF7EC"/>
<path d="M79.0263 23.9899L0.274414 36.9378L30.0821 17.8117L105.898 0L79.0263 23.9899Z" fill="url(#paint1_linear_57_324)"/>
<path d="M118.745 36.6258L123.664 36.2972L105.66 2.18555L102.664 4.8803L118.745 36.6258Z" fill="#062023"/>
<defs>
<linearGradient id="paint0_linear_57_324" x1="99.2744" y1="40.7024" x2="99.2744" y2="4.59223" gradientUnits="userSpaceOnUse">
<stop stop-color="#28C985"/>
<stop offset="1" stop-color="#18808A"/>
</linearGradient>
<linearGradient id="paint1_linear_57_324" x1="56.4727" y1="38.4034" x2="48.8611" y2="1.55617" gradientUnits="userSpaceOnUse">
<stop stop-color="#28C985"/>
<stop offset="1" stop-color="#18808A"/>
</linearGradient>
</defs>
</svg>

<svg width="125" height="79" fill="none" xmlns="http://www.w3.org/2000/svg"><path d="M5.684 36.708V78h113.03V36.379M78.46 25.271V78" stroke="#062023" stroke-width="1.5" stroke-miterlimit="10" stroke-linecap="round" stroke-linejoin="round"/><path d="M80.935 24.023 102.664 4.88l14.949 29.51-36.678-10.367z" fill="url(#a)"/><path d="M79.026 23.99.274 36.938V38.4l79.2-13.046L105.66 2.185l18.003 34.112.611-1.43L105.898 0 79.026 23.99z" fill="#FEF7EC"/><path d="M79.026 23.99.274 36.938l29.808-19.126L105.898 0 79.026 23.99z" fill="url(#b)"/><path d="m118.745 36.626 4.919-.329L105.66 2.186l-2.996 2.694 16.081 31.746z" fill="#062023"/><defs><linearGradient id="a" x1="99.274" y1="40.702" x2="99.274" y2="4.592" gradientUnits="userSpaceOnUse"><stop stop-color="#28C985"/><stop offset="1" stop-color="#18808A"/></linearGradient><linearGradient id="b" x1="56.473" y1="38.403" x2="48.861" y2="1.556" gradientUnits="userSpaceOnUse"><stop stop-color="#28C985"/><stop offset="1" stop-color="#18808A"/></linearGradient></defs></svg>
